X:411
T:
S:Efter O. A. Gustafsson, Myrungs i Linde.
R:hamburgska
O:Gotland, Linde
M:3/4
L:1/8
K:G
B|Ld>B G2 Gc|Le>c A2 AB|Lc>A FF FA|Ld>B G2 G2|
G>G c>c e>e|g>g d2 BG|A>A c>c F>F|A>A G2 z::
A|LA>A B2 A>A|Ld>d f2 dd|c>b a>g ec|df AG FG|
A>A B2 A>A|d>d f2 ff|cb ag ec|A>f d4 z:|

